dist/assets/images/icons/rombs_selected.svg

<svg width="18" height="12" viewBox="0 0 18 12" fill="none" xmlns="http://www.w3.org/2000/svg">
<path fill-rule="evenodd" clip-rule="evenodd" d="M7.50607 9L6 6C6.79959 4.39146 7.41659 3.16034 8.10089 1.79494C8.21198 1.57328 8.32484 1.34809 8.44055 1.11716C8.61897 0.761067 8.80414 0.391357 9 -3.57746e-08L12 6L10.5061 9L9 12L7.50607 9ZM9.00362 9.76393L8.39978 8.55134L7.1179 5.99792C7.81165 4.60395 8.37507 3.47976 8.9942 2.24438C8.99586 2.24107 8.99752 2.23775 8.99919 2.23444L10.8824 6.00091L9.61237 8.55134L9.00362 9.76393Z" fill="#0C0B10"/>
<path fill-rule="evenodd" clip-rule="evenodd" d="M1.00405 8L4.76995e-08 6C0.533045 4.92766 0.944374 4.10693 1.40056 3.19669C1.41383 3.17022 1.42713 3.14367 1.44048 3.11703C1.61654 2.76574 1.79991 2.39981 2 2L4 6L3.00405 8L2 10L1.00405 8ZM2.00362 7.76393L1.89776 7.55134L1.11793 5.99799C1.43696 5.35734 1.71625 4.79904 1.99913 4.23433L2.88242 6.00091L2.11035 7.55134L2.00362 7.76393Z" fill="#0C0B10"/>
<path fill-rule="evenodd" clip-rule="evenodd" d="M15.004 8L14 6C14.533 4.92766 14.9444 4.10693 15.4006 3.19669C15.4138 3.17022 15.4271 3.14367 15.4405 3.11703C15.6165 2.76574 15.7999 2.39981 16 2L18 6L17.004 8L16 10L15.004 8ZM16.0036 7.76393L15.8978 7.55134L15.1179 5.99799C15.437 5.35734 15.7162 4.79904 15.9991 4.23433L16.8824 6.00091L16.1103 7.55134L16.0036 7.76393Z" fill="#0C0B10"/>
</svg>

<svg width="18" height="12" fill="none" xmlns="http://www.w3.org/2000/svg"><path fill-rule="evenodd" clip-rule="evenodd" d="M7.506 9L6 6c.8-1.609 1.417-2.84 2.1-4.205l.34-.678L9 0l3 6-1.494 3L9 12 7.506 9zm1.498.764L8.4 8.55 7.118 5.998c.694-1.394 1.257-2.518 1.876-3.754L9 2.234l1.883 3.767-1.27 2.55-.608 1.213zM1.004 8L0 6c.533-1.072.944-1.893 1.4-2.803l.04-.08L2 2l2 4-.996 2L2 10l-.996-2zm1-.236l-.106-.213-.78-1.553.881-1.764.883 1.767-.772 1.55-.106.213zm13 .236L14 6c.533-1.072.944-1.893 1.4-2.803l.04-.08L16 2l2 4-.996 2L16 10l-.996-2zm1-.236l-.106-.213-.78-1.553.881-1.764.883 1.767-.772 1.55-.106.213z" fill="#0C0B10"/></svg>
